!!!ONB: MCCC : IJB0064_03 : Extracted Monophonic Melody
!!!COM: Bach, Johann Sebastian
!!!OPR: Cello Suite No.2
!!!OMV: 3
!!!SCT: BWV 1008
!!!ODT: 1717///
**kern
*thru
*staff1
*IP1
*clefF4
*k[b-]
*d:
*M3/4
*>A
16d
=1
16d
16A
16F
16A
16D
16F
16G
16A
16B-
16A
16B-
16G
=2
[4A
16A]
16D
16E
16F
16G
16F
16G
16E
=3
16F
16D
16E
16C
16BB-
16AA
16BB-
16A
16G
16F
16E
16D
=4
16C#
16E
16AA
16BB
16C#
16D
16E
16F
16G
16B-
16A
16E
=5
16F
16A
16D
16E
16F
16G
16A
16B-
16c
16B-
16d
16c
=6
[4c
16c]
16B-
16A
16G
16F
16E-
16D
16E-
=7
16D
16BB-
16AA
16BB-
16D
16BB-
16E
16BB-
16F
16BB-
16G
16BB-
=8
16EE
16GG
16C
16D
16E
16F
16G
16A
16B-
16A
16B-
16G
=9
16A
16F
16E
16F
16A
16F
16B-
16F
16c
16F
16d
16F
=10
16C#
16E
16A
16B
16c#
16d
16e
16f
16g
16f
16g
16e
=11
16D
16A
16f
16e
16d
16c
16d
16c
16B
16A
16B
16A
=12
16G#
16A
16B
16E
16F
16E
16F
16D
16E
16C
16D
16BB
=13
16C
16A
16B
16c
16B
16A
16G#
16A
16D
16A
16E
16A
=14
16F
16A
16B
16c
16B
16A
16G#
16A
16F
16A
16E
16A
=15
16D#
16A
16B
16c
16B
16A
16G#
16A
16E
16A
16E
16G#
=16
16A
16E
16C#
16E
16AA
16C#
16E
16G#
8.A
*>A
16d
=1
16d
16A
16F
16A
16D
16F
16G
16A
16B-
16A
16B-
16G
=2
[4A
16A]
16D
16E
16F
16G
16F
16G
16E
=3
16F
16D
16E
16C
16BB-
16AA
16BB-
16A
16G
16F
16E
16D
=4
16C#
16E
16AA
16BB
16C#
16D
16E
16F
16G
16B-
16A
16E
=5
16F
16A
16D
16E
16F
16G
16A
16B-
16c
16B-
16d
16c
=6
[4c
16c]
16B-
16A
16G
16F
16E-
16D
16E-
=7
16D
16BB-
16AA
16BB-
16D
16BB-
16E
16BB-
16F
16BB-
16G
16BB-
=8
16EE
16GG
16C
16D
16E
16F
16G
16A
16B-
16A
16B-
16G
=9
16A
16F
16E
16F
16A
16F
16B-
16F
16c
16F
16d
16F
=10
16C#
16E
16A
16B
16c#
16d
16e
16f
16g
16f
16g
16e
=11
16D
16A
16f
16e
16d
16c
16d
16c
16B
16A
16B
16A
=12
16G#
16A
16B
16E
16F
16E
16F
16D
16E
16C
16D
16BB
=13
16C
16A
16B
16c
16B
16A
16G#
16A
16D
16A
16E
16A
=14
16F
16A
16B
16c
16B
16A
16G#
16A
16F
16A
16E
16A
=15
16D#
16A
16B
16c
16B
16A
16G#
16A
16E
16A
16E
16G#
=16
16A
16E
16C#
16E
16AA
16C#
16E
16G#
8.A
*>B
16e
=18
16e
16c#
16A
16c#
16E
16F
16G
16A
16B-
16G
16c#
16G
=19
[4d
16d]
16A
16d
16e
16f
16d
16A
16c
=20
16B
16F
16D
16F
16GG
16D
16F
16G
16B
16F
16d
16F
=21
16E
16G
16C
16D
16E
16F
16G
16A
16B-
16d
16c
16G
=22
16A
16c
16B-
16A
16G
16F
16E-
16D
16E-
16c
16F
16E-
=23
[4D
16D]
16E
16F
16G
16A
16B-
16c
16d
=24
16E
16BB-
16AA
16GG
16AA
16F
16GG
16FF
16CC
16GG
16F
16E
=25
16F
16A
16B-
16A
16G
16F
16E
16F
16G
16E
16F
16D
=26
16C#
16G
16BB
16G
16AA
16G
16BB
16G
16C#
16G
16AA
16G
=27
16F
16D
16F
16A
16d
16A
16d
16e
16f
16A
16F
16D
=28
16GG
16D
16G
16A
16B-
16g
16A
16f
16G
16e
16G
16d
=29
16c#
16d
16e
16c#
16A
16c#
16B-
16c#
16A
16c#
16G
16c#
=30
16F
16d
16e
16f
16e
16d
16c#
16d
16G
16d
16A
16d
=31
16B-
16d
16e
16f
16e
16d
16c#
16d
16B-
16d
16A
16d
=32
16G#
16d
16e
16f
16e
16d
16c#
16d
16A
16d
16A
16c#
=33
16d
16A
16F
16A
16D
16F
16AA
16D
8.DD
*>B
16e
=18
16e
16c#
16A
16c#
16E
16F
16G
16A
16B-
16G
16c#
16G
=19
[4d
16d]
16A
16d
16e
16f
16d
16A
16c
=20
16B
16F
16D
16F
16GG
16D
16F
16G
16B
16F
16d
16F
=21
16E
16G
16C
16D
16E
16F
16G
16A
16B-
16d
16c
16G
=22
16A
16c
16B-
16A
16G
16F
16E-
16D
16E-
16c
16F
16E-
=23
[4D
16D]
16E
16F
16G
16A
16B-
16c
16d
=24
16E
16BB-
16AA
16GG
16AA
16F
16GG
16FF
16CC
16GG
16F
16E
=25
16F
16A
16B-
16A
16G
16F
16E
16F
16G
16E
16F
16D
=26
16C#
16G
16BB
16G
16AA
16G
16BB
16G
16C#
16G
16AA
16G
=27
16F
16D
16F
16A
16d
16A
16d
16e
16f
16A
16F
16D
=28
16GG
16D
16G
16A
16B-
16g
16A
16f
16G
16e
16G
16d
=29
16c#
16d
16e
16c#
16A
16c#
16B-
16c#
16A
16c#
16G
16c#
=30
16F
16d
16e
16f
16e
16d
16c#
16d
16G
16d
16A
16d
=31
16B-
16d
16e
16f
16e
16d
16c#
16d
16B-
16d
16A
16d
=32
16G#
16d
16e
16f
16e
16d
16c#
16d
16A
16d
16A
16c#
=33
16d
16A
16F
16A
16D
16F
16AA
16D
8.DD
==
*-
